X:67
T:Polska ur kantor P A Isséns samling
B:FMK - katalog Sm18 bild 67
S:upptecknad av [[Personer/August Fredin]]
O:Östergötland, Furingstad
R:Slängpolska
Z:Nils L
M:3/4
L:1/16
K:C
G2c2 c2c2 egec | BdBG BdBG BdBG | G2c2 c2c2 egec | BdBG AcA^F G4 ::
G2g2 g2g2 egec | c2d2 d2d2 BdBG | G2g2 g2g2 egec | c2d2 d2d2 BdBG |
G2G2 c2c2 e2g2 | gagf f2d2 c4 :|

